source/img/icon-6.svg

<svg width="50" height="40" viewBox="0 0 50 40" fill="none" xmlns="http://www.w3.org/2000/svg">
<path d="M6.02752 35H18.6422V21.2716H6.02752V35ZM34.3853 11.6914H27.0183C27.5229 11.3951 28.0275 11.1975 28.4312 10.9012C30.0459 9.81481 30.8532 8.33333 30.8532 6.95062C30.8532 5.76543 30.2477 4.77777 29.4404 4.08641C28.633 3.39505 27.5229 3 26.4128 3C25.2018 3 23.9908 3.39505 23.0826 4.08641C21.5688 5.07406 20.4587 6.55555 19.6514 8.1358C19.6514 8.23456 19.5505 8.33333 19.5505 8.33333C19.2477 7.74073 18.945 7.14814 18.5413 6.55555C17.8349 5.56789 17.0275 4.679 16.0183 4.08641C15.0092 3.49382 13.8991 3 12.6881 3C11.4771 3 10.367 3.49383 9.45871 4.28395C8.65137 5.07408 8.04587 6.16049 8.04587 7.34567C8.04587 8.03703 8.2477 8.82715 8.65137 9.51851C9.25687 10.4074 10.0642 11.0988 11.2752 11.6914H4.61467C3.70641 11.6914 3 12.3827 3 13.2716V19.0988H18.5413V11.6914H20.4587V19.0988H36V13.2716C36 12.3827 35.2936 11.6914 34.3853 11.6914ZM11.8807 9.41975C11.2752 9.02469 10.8716 8.62962 10.6697 8.33333C10.4679 7.93826 10.367 7.64197 10.367 7.34567C10.367 6.85184 10.5688 6.35802 11.0734 5.86419C11.4771 5.46913 12.0826 5.17284 12.6881 5.17284C13.3945 5.17284 14.1009 5.37036 14.7064 5.86419C15.7156 6.55555 16.7248 7.64196 17.3303 9.02468C17.633 9.71604 17.9358 10.4074 18.1376 11.0988C15.0092 10.8025 12.9908 10.1111 11.8807 9.41975ZM22.4771 7.8395C23.0826 7.04938 23.6881 6.35802 24.3945 5.96296C25.1009 5.46914 25.8073 5.27161 26.4128 5.27161C27.0183 5.27161 27.5229 5.46914 27.9266 5.76543C28.3303 6.06173 28.5321 6.45679 28.5321 6.95062C28.5321 7.44444 28.2294 8.23456 27.0183 9.02468C25.9083 9.8148 23.8899 10.7037 20.8624 11.2963C21.1651 10.1111 21.7706 8.82715 22.4771 7.8395ZM20.4587 35H33.0734V21.2716H20.4587V35Z" fill="#63D1BB"/>
</svg>

<svg width="50" height="40" fill="none" xmlns="http://www.w3.org/2000/svg"><path d="M6.03 35h12.61V21.27H6.03V35zm28.36-23.3h-7.37c.5-.3 1-.5 1.41-.8 1.62-1.09 2.42-2.57 2.42-3.95 0-1.18-.6-2.17-1.41-2.86A4.72 4.72 0 0026.41 3c-1.2 0-2.42.4-3.33 1.09a10.36 10.36 0 00-3.43 4.05c0 .1-.1.2-.1.2-.3-.6-.6-1.2-1-1.78a8.5 8.5 0 00-2.53-2.47C15 3.49 13.9 3 12.69 3s-2.32.5-3.23 1.28a4.39 4.39 0 00-1.41 3.07c0 .69.2 1.48.6 2.17.6.89 1.41 1.58 2.63 2.17H4.6c-.9 0-1.61.7-1.61 1.58v5.83h15.54v-7.4h1.92v7.4H36v-5.83c0-.89-.7-1.58-1.61-1.58zm-22.5-2.28c-.61-.4-1.02-.79-1.22-1.09-.2-.4-.3-.69-.3-.98 0-.5.2-1 .7-1.49.4-.4 1.01-.69 1.62-.69.7 0 1.41.2 2.02.7a7.6 7.6 0 012.62 3.15c.3.7.6 1.39.8 2.08-3.12-.3-5.14-.99-6.25-1.68zm10.59-1.58a6.84 6.84 0 011.91-1.88c.71-.5 1.42-.69 2.02-.69.6 0 1.11.2 1.52.5.4.3.6.69.6 1.18 0 .5-.3 1.28-1.51 2.07-1.11.8-3.13 1.68-6.16 2.28.3-1.19.91-2.47 1.62-3.46zM20.46 35h12.61V21.27H20.46V35z" fill="#63D1BB"/></svg>
